assets/Mirror/Flat/mirror_flat.svg

<svg width="32" height="32" viewBox="0 0 32 32" fill="none" xmlns="http://www.w3.org/2000/svg">
<path d="M25.87 17.9C25.17 16.82 25.17 15.49 25.87 14.42C26.36 13.67 26.65 12.77 26.65 11.8C26.65 9.70005 25.02 7.87005 22.92 7.26005C21.97 6.98005 21.27 6.23005 20.94 5.30005C20.3 3.50005 18.47 1.99005 16.35 2.00005C14.32 2.01005 12.64 3.51005 11.92 5.26005C11.56 6.13005 10.82 6.84005 9.9 7.02005C7.63 7.48005 6 9.58005 6 11.74C6 12.71 6.29 13.6 6.78 14.36C7.48 15.44 7.48 16.77 6.78 17.84C6.29 18.59 6 19.49 6 20.46C6 22.62 7.5 24.7201 9.67 25.1901C10.55 25.3801 11.3 26.04 11.62 26.88C12.31 28.7 14.06 30 16.13 30C18.19 30 19.95 28.7 20.64 26.88C20.97 26.01 21.73 25.35 22.64 25.15C24.96 24.65 26.65 22.67 26.65 20.51C26.64 19.55 26.36 18.65 25.87 17.9Z" fill="#F9C23C"/>
<path d="M21.8603 10.05C20.6379 7.24441 18.6122 5.41003 16.3201 5.41003C12.5866 5.41003 9.56006 10.2767 9.56006 16.28C9.56006 18.1786 9.86278 19.9636 10.3948 21.5168L18.4667 18.6608L21.8603 10.05Z" fill="#26EAFC"/>
<path d="M16.32 27.15C20.05 27.15 23.08 22.28 23.08 16.28C23.08 13.96 22.63 11.81 21.86 10.05L10.4 21.51C11.55 24.87 13.77 27.15 16.32 27.15Z" fill="#B4F6FC"/>
</svg>

<svg xmlns="http://www.w3.org/2000/svg" width="32" height="32" fill="none"><path fill="#F9C23C" d="M25.87 17.9c-.7-1.08-.7-2.41 0-3.48.49-.75.78-1.65.78-2.62 0-2.1-1.63-3.93-3.73-4.54-.95-.28-1.65-1.03-1.98-1.96-.64-1.8-2.47-3.31-4.59-3.3-2.03.01-3.71 1.51-4.43 3.26-.36.87-1.1 1.58-2.02 1.76C7.63 7.48 6 9.58 6 11.74c0 .97.29 1.86.78 2.62.7 1.08.7 2.41 0 3.48-.49.75-.78 1.65-.78 2.62 0 2.16 1.5 4.26 3.67 4.73.88.19 1.63.85 1.95 1.69A4.82 4.82 0 0 0 16.13 30c2.06 0 3.82-1.3 4.51-3.12.33-.87 1.09-1.53 2-1.73 2.32-.5 4.01-2.48 4.01-4.64-.01-.96-.29-1.86-.78-2.61Z"/><path fill="#26EAFC" d="M21.86 10.05c-1.222-2.806-3.248-4.64-5.54-4.64-3.733 0-6.76 4.867-6.76 10.87 0 1.899.303 3.684.835 5.237l8.072-2.856 3.393-8.611Z"/><path fill="#B4F6FC" d="M16.32 27.15c3.73 0 6.76-4.87 6.76-10.87 0-2.32-.45-4.47-1.22-6.23L10.4 21.51c1.15 3.36 3.37 5.64 5.92 5.64Z"/></svg>
